build/img/download.svg

<svg width="24" height="25" viewBox="0 0 24 25" fill="none" xmlns="http://www.w3.org/2000/svg">
<path d="M7.60601 11.2931C7.19036 10.9026 6.51646 10.9026 6.10081 11.2931C5.68515 11.6836 5.68515 12.3168 6.10081 12.7073L10.8904 17.2073C11.306 17.5978 11.9799 17.5978 12.3956 17.2073L17.1851 12.7073C17.6008 12.3168 17.6008 11.6836 17.1851 11.2931C16.7695 10.9026 16.0956 10.9026 15.6799 11.2931L12.7073 14.086V3.50024C12.7073 2.94795 12.2308 2.50024 11.643 2.50024C11.0552 2.50024 10.5787 2.94795 10.5787 3.50024V14.086L7.60601 11.2931Z" fill="#94A0B1"/>
<path d="M3.12869 16.5002C3.12869 15.9479 2.65217 15.5002 2.06435 15.5002C1.47652 15.5002 1 15.9479 1 16.5002V21.5002C1 22.0525 1.47652 22.5002 2.06435 22.5002H21.2225C21.8103 22.5002 22.2868 22.0525 22.2868 21.5002V16.5002C22.2868 15.9479 21.8103 15.5002 21.2225 15.5002C20.6347 15.5002 20.1581 15.9479 20.1581 16.5002V20.5002H3.12869V16.5002Z" fill="#94A0B1"/>
</svg>

<svg width="24" height="25" viewBox="0 0 24 25" fill="none" xmlns="http://www.w3.org/2000/svg"><path d="M7.606 11.293a1.113 1.113 0 00-1.505 0 .958.958 0 000 1.414l4.79 4.5c.415.39 1.089.39 1.505 0l4.79-4.5a.958.958 0 000-1.414 1.113 1.113 0 00-1.506 0l-2.973 2.793V3.5c0-.552-.476-1-1.064-1-.588 0-1.064.448-1.064 1v10.586l-2.973-2.793z" fill="#94A0B1"/><path d="M3.129 16.5c0-.552-.477-1-1.065-1-.587 0-1.064.448-1.064 1v5c0 .552.477 1 1.064 1h19.159c.587 0 1.064-.448 1.064-1v-5c0-.552-.477-1-1.064-1-.588 0-1.065.448-1.065 1v4H3.128v-4z" fill="#94A0B1"/></svg>
